assets/landing/benefits/optimized.svg

<svg width="44" height="44" viewBox="0 0 44 44" fill="none" xmlns="http://www.w3.org/2000/svg">
<path fill-rule="evenodd" clip-rule="evenodd" d="M38.7619 30.3812V11.5241C38.7619 10.4127 38.3204 9.34685 37.5345 8.56098C36.7487 7.77511 35.6828 7.33362 34.5714 7.33362H9.42857C8.31719 7.33362 7.25133 7.77511 6.46546 8.56098C5.67959 9.34685 5.2381 10.4127 5.2381 11.5241V30.3812C5.2381 31.4926 5.67959 32.5585 6.46546 33.3443C7.25133 34.1302 8.31719 34.5717 9.42857 34.5717H34.5714C35.6828 34.5717 36.7487 34.1302 37.5345 33.3443C38.3204 32.5585 38.7619 31.4926 38.7619 30.3812Z" stroke="#03E2B3" stroke-width="2.5" stroke-linecap="round" stroke-linejoin="round"/>
<path fill-rule="evenodd" clip-rule="evenodd" d="M34.1 26.8403V21.5603C34.1 21.0935 33.8875 20.6458 33.5093 20.3158C33.1311 19.9857 32.6182 19.8003 32.0833 19.8003H11.9167C11.3818 19.8003 10.8689 19.9857 10.4907 20.3158C10.1125 20.6458 9.90001 21.0935 9.90001 21.5603V26.8403C9.90001 27.3071 10.1125 27.7547 10.4907 28.0848C10.8689 28.4149 11.3818 28.6003 11.9167 28.6003H32.0833C32.6182 28.6003 33.1311 28.4149 33.5093 28.0848C33.8875 27.7547 34.1 27.3071 34.1 26.8403Z" stroke="#03E2B3" stroke-width="2.5" stroke-linecap="round" stroke-linejoin="round"/>
<path d="M20.9 13.2003L34.1 13.2003" stroke="#03E2B3" stroke-width="2.5" stroke-linecap="round" stroke-linejoin="round"/>
<path d="M9.90001 13.2003H12.1" stroke="#03E2B3" stroke-width="2.5" stroke-linecap="round" stroke-linejoin="round"/>
</svg>

<svg xmlns="http://www.w3.org/2000/svg" fill="#03E2B3" stroke="#03E2B3" viewBox="0 0 44 44">
  <path fill="none" stroke-linecap="round" stroke-linejoin="round" stroke-width="2.5" d="M38.76 30.38V11.52a4.19 4.19 0 0 0-4.19-4.19H9.43a4.19 4.19 0 0 0-4.2 4.2v18.85a4.19 4.19 0 0 0 4.2 4.2h25.14a4.19 4.19 0 0 0 4.2-4.2Z" clip-rule="evenodd"/>
  <path fill="none" stroke-linecap="round" stroke-linejoin="round" stroke-width="2.5" d="M34.1 26.84v-5.28c0-.47-.21-.91-.6-1.24-.37-.33-.88-.52-1.42-.52H11.92c-.54 0-1.05.19-1.43.52-.38.33-.59.77-.59 1.24v5.28c0 .47.21.91.6 1.24.37.33.88.52 1.42.52h20.16c.54 0 1.05-.19 1.43-.52.38-.33.59-.77.59-1.24Z" clip-rule="evenodd"/>
  <path fill="none" stroke-linecap="round" stroke-linejoin="round" stroke-width="2.5" d="M20.9 13.2h13.2M9.9 13.2h2.2"/>
</svg>
